X:1
T:O fly not love - Bateson
T:James Gibb editions
T:#
%%score 1 2 3 4
L:1/8
Q:1/4=108
M:4/4
K:Eb
V:1 treble nm="Alto I" snm="A I"
V:2 treble nm="Alto II" snm="A II"
V:3 treble-8 nm="Tenor I" snm="T I"
V:4 treble-8 nm="Tenor II" snm="T II"
V:1
"^O fly not love""^Thomas Bateson\n (1575-1630)" z8 | z2!mf! B2 A2 G2 | F2 B,2 (CDEC | DEF)D E4 | %4
w: |O fly not|love, O fly * * *|* * * not me!|
[M:4/4] z4 z2 G2 | (FGA)F G2 =E2 | F2 F2 F2 _E2 | (AGFA G2) F2 | E4 z2 F2 | (GAB)G F4 | %10
w: O|fly * * not love, O|fly not me! O|fly * * * * not|love, O|fly * * not me!|
 z2 B2 A2 G2 | F2 E2 F2 F2 | G4 B4 | z2 FG A4- | A2 EF G4 | z2 GA B4 | z2 FG A4- | A2 G2 F4 | G8 | %19
w: O fly not|me! O fly not|me! Stay|but a- while,|* but a- while,|but a- while,|but a- while,|* O stay|thee,|
 F6 C_D | EF (GF) E4 | z4 B4- | B2 FG A2 G2 | F8 | F8 | z8 | z8 | z4!p! c4 | B6 A2 | G4 (F2 G2) | %30
w: stay but a-|while, O stay * thee,|stay|* but a- while, O|stay|thee:|||And|hear a|wretch com\- *|
 A4 E2 F2 | G4 F4 | =E4 F4 | G8 | =A4 (F2 G2) | _A4 F4 | E6 (B,C) | (_D2 E2 F4) | F4 F2 F2 | %39
w: plain- ing, and|hear a|wretch com-|plain-|ing His *|grief through|thy dis\- *|dain\- * *|ing, thy dis-|
 (F6 E2) | =D8 | z4 z2 F2- | F2 E_D C2 DD | E2 (_DC) B,3 C | (_D2 CB, A,2 B,2) | C2 c4 BA | %46
w: dain\- *|ing.|O!|* do not thus, do not|thus un\- * friend- ly|use * * * *|me, O! do not|
 G2 FF E2 F2 | G2 A2 (B4- | B2 A2 G4) | F2 _A4 GF | E2 EF G3 A | B2 F2 (B2 GA) | B2 c2 B4- | %53
w: thus, do not thus un-|friend- ly use||me, O! do not|thus, do not thus un-|friend- ly use * *|me, un- friend\-|
 B2 B,2 C4 | B,8 | z8 | z8 | z8 | z4 z2 F2 | G2 (EF) G2 A2 | B6 G2 | c4 c4 | z4 C4 | %63
w: * ly use|me,||||To|kiss me * once, and|so re-|fuse me,|to|
 D2 (B,C) D2 E2 | F2 (CD) (E2 C2) | D2 B,2 E4- | E2 E2 D4 | E16 |] %68
w: kiss me * once and|so re\- * fuse *|me, and so|* re- fuse|me.|
V:2
 z2!mf! B2 A2 G2 | F4 z2 E2 | (FEF)G (AF) B2 | A4 (G4 |[M:4/4] F2 F2 F2 =E2 | F4 z2 G2 | %6
w: O fly not|love, O|fly * * not me! * O|fly not,|* O fly not|me! O|
 (AGFA G2) G2 | F4 z2 F2 | GAB)G F4 | E2 E4 D2 | E4 z2 (B,C) | (D2 E4) D2 | E8 | z4 z2 F2- | %14
w: fly * * * * not|love, O|fly * * not love,|O fly not|me! O *|fly * not|me!|Stay|
 F2 C_D E4 | z2 EF G4 | F2 _DE F4- | F2 E4 =D2 | E4 z2 B2- | B2 FG A4- | A2 EF GA B2 | %21
w: * but a- while,|but a- while,|stay but a- while,|* O stay|thee, stay|* but a- while,|* but a- while, a- while,|
 B2 BA G2 F2 | (FGAB c4) | =A4!p! c4 | B6 _A2 | G6 F2 | (E6 D2 | C8) | D8 | z8 | z4 c4 | B6 A2 | %32
w: stay but a- while, O|stay * * * *|thee: And|hear a|wretch com-|plain\- *||ing,||and|hear a|
 G2 G2 (F4- | F4 =E4) | F8 | (F2 G2) _A4- | A4 _G4 | F6 G2 | (A2 F2 B4- | B4 =A4) | B4 z2 B2- | %41
w: wretch com- plain\-||ing|His * grief|* through|thy dis-|dain\- * *||ing. O!|
 B2 _AG F2 FG | A2 (GF) E2 F2 | G2 E2 z2 B2- | B2 AG F2 GG | A2 (GF) E2 F2 | GE c4 BA | %47
w: * do not thus, do not|thus un\- * friend- ly|use me, O!|* do not thus, do not|thus un\- * friend- ly|use me, O do not|
 G2 GF E2 F2 | G2 F2 (F2 =E2) | F8 | z4 z2 B2- | B2 AG F2 FE | DB, (E4 D2) | E4 z4 | z8 | %55
w: thus, do not thus un-|friend- ly use *|me,|O!|* do not thus, thus un-|friend- ly use *|me,||
 z2 F2 G2 (EF) | G2 A2 B4- | B2 (AG) (F2 E2) | F2 G2 A2 B2 | B2 B,2 z2 C2 | D2 (B,C) D2 E2 | %61
w: To kiss me *|once, and so|* re\- * fuse *|me, and so re-|fuse me, to|kiss me * once, and|
 F2 (C_D) (E2 D2) | C3 _D E2 CC | F2 (=DE) F2 G2 | (A2 B2) c4 | B8- | B8 | G16 |] %68
w: so re\- * fuse *|me, re- fuse me, to|kiss me * once and|so * re-|fuse||me.|
V:3
!mf! B4 (cde)c | d2 d2 e3 e | B4 z4 | z4 z2 e2 |[M:4/4][K:treble-8] _d2 c2 c2 G2 | (AGFA G2) c2 | %6
w: O fly * * not|love, O fly not|me!|O|fly not love, O|fly * * * * not|
 c4 z2 C2 | (FGA)F B4 | B2 e4 d2 | e4 z2 B2 | A2 G2 F2 E2 | F2 G2 F2 B2 | B4 z4 | _d4 z2 AB | %14
w: me! O|fly * * not love,|O fly not|me! O|fly not me! O|fly not, fly not|me!|Stay but a-|
 c4 z2 GA | B4 z2 Bc | _d4 z2 AB | c2 B2 B2 B2 | B2 GA B4 | FG A4 A2 | E4 z4 | z8 | z4 z2 (c2- | %23
w: while, but a-|while, but a-|while, but a-|while, stay thee, stay|thee, but a- while,|but a- while, stay|thee,||O|
 c2 B2)!>(! =A4 | B8- | B8!>)! | z8 | z8 | z4!p! f4 | e6 d2 | c8 | z4 F4 | c4 c2 c2 | c8 | c8 | %35
w: * * stay|thee:||||And|hear a|wretch|com-|plain- ing, com-|plain-|ing|
 z8 | z4 B4 | A2 A2 _d2 d2 | c4 B4 | c2 c2 f4 | f8 | z2 _d4 cB | A2 AB c2 (BA) | G3 A B2 F2 | %44
w: |His|grief through thy dis-|dain- ing,|thy dis- dain-|ing.|O! do not|thus, do not thus un\- *|friend- ly use me,|
 z2 f4 e_d | c3 _d e2 B2 | z4 e2 _dc | B2 A2 G2 F2 | (=E2 F2 G4) | =A2 z2 c4- | c2 BA GABA | %51
w: O! do not|thus un- friend- ly,|O do not|thus un- friend- ly|use * *|me, O!|* do not thus un- friend- ly|
 G2 F2 z4 | z4 z2 F2 | G2 (EF) G2 =A2 | B2 (GA) B2 c2 | B4 E4 | z8 | z2 c2 d2 (Bc) | d2 e2 f2 d2 | %59
w: use me.|To|kiss me * once and|so, and * so re-|fuse me,||to kiss me *|once and so re-|
 e8 | B4 z2 B2 | c2 (AB) c2 _d2 | e4 E4 | F4 B4 | z4 z2 E2 | B6 B2 | B8 | B16 |] %68
w: fuse|me, to|kiss me * once and|so re-|fuse me,|and|so re-|fuse|me.|
V:4
 z8 | z2!mf! B2 (cde)c | d2 d2 e2 E2 | (FGA)F (GABG |[M:4/4][K:treble-8] A2 F2 C4 | z4 C4 | %6
w: |O fly * * not|love, O fly not|me! * * O fly * * *|* not me!|O|
 (FGA)F c4 | z2 c2 def)d | e4 z2 B2 | (EFG)E B4 | z4 z2 e2 | d2 c2 B3 A | G4 z4 | B4 z2 FG | %14
w: fly * * not me!|O fly * * not|love, O|fly * * not me!|O|fly not, fly not|me!|Stay but a-|
 A4 z2 EF | G4 z2 GA | B4 z2 FG | A2 E2 B,4 | E4 z4 | z8 | z2 c4 GA | B2 Bc _d2 de | f6 =e2 | %23
w: while, but a-|while, but a-|while, but a-|while, O stay|thee,||stay but a-|while, but a- while, but a-|while, O|
 f4 F4 | z4!p! f4 | e6 d2 | c2 c2 (B4- | B4 =A4) | B8 | E8 | E4 A4 | (G2 A2 B4- | B4 A4 | G8 | F8 | %35
w: stay thee:|And|hear a|wretch com- plain\-||ing,|and|hear a|wretch * *|* com-|plain-|ing|
 z8 | z8 | z4 B4 | A2 A2 _d2 d2 | c2 B2 c4) | B8 | B6 AG | F2 FG A2 (GF) | (E3 F G3) A | B4 F4 | %45
w: ||His|grief through thy dis-|dain\- * *|ing.|O! do not|thus, do not thus un\- *|friend\- * * ly|use me,|
 z2 e4 _dc | B2 A2 G2 F2 | z2 EF G2 (AB) | G2 (AB) c4 | c4 z4 | z2 e4 _dc | B2 cc =d2 e2 | %52
w: O! do not|thus un- friend- ly,|do not thus un\- *|friend- ly * use|me,|O! do not|thus, do not thus un-|
 f2 g2 f4 | e4 z2 c2 | d2 (Bc) d2 e2 | f2 d2 (e3 d | c4) B4 | z8 | z8 | z4 z2 E2 | F2 (DE) F2 G2 | %61
w: friend- ly use|me, To|kiss me * once and|so re- fuse *|* me,|||to|kiss me * once and|
 AA (GF) E2 B2 | G2 (EF) G2 =A2 | B4 F4 | (c2 B2) A4- | A4 G4 | F2 E2 F4 | E16 |] %68
w: so re- fuse * me, to|kiss me * once and|so re-|fuse * me,|* and|so re- fuse|me.|

